X:1709
T:Bob Sanders
P:Mrs Stewart's Fancy
C:Abraham Mackintosh
R:Jig (8x40) ABABB
B:RSCDS 17-9
Z:Anselm Lingnau <anselm@strathspey.org>
M:6/8
L:1/8
K:A
f|"A"e2c ca=g|"Bm"fdB B2f|"A"ecA Ace|"Bm"f3 f2g|
  "A/C#"agf edc|"D"fdB B2 f/g/|"A/E"aec "E7"dcB|"A"A3 A2||
E|"F#m"A2A AcB|"Bm"AFF F2E|"A/C#"AcB Ace|"D"f3 f2g|
  "A"agf edc|"Bm"fdB B2 f/g/|"A"aec "E7"dBg|"A"A3 A2|]

